**kern	**kern
*part1	*part1
*staff2	*staff1
*striaNone	*
*clefF4	*clefG2
*k[]	*k[]
1C	1c 1e 1g
1A-	1c 1e- 1a-
=	=
1C	1c 1e 1g
1D	1A 1d 1f#
=	=
1C	1c 1e 1g
1AA	1c# 1e 1a
=	=
1C	1c 1e 1g
1FF#	1c# 1f# 1a#
=	=
1A	1a 1cc 1ee
1c#	1g# 1cc# 1ee
=	=
1A	1a 1cc 1ee
1G	1b- 1dd 1gg
=	=
1A	1a 1cc 1ee
1c	1g 1cc 1ee-
=	=
1A	1a 1cc 1ee
1e-	1g- 1b- 1ee-
=	=
1C	1c 1e 1g
1GG	1B- 1d 1g
=	=
1C	1c 1e 1g
1E-	1B- 1e- 1g-
=	=
1C	1c 1e 1g
1BB-	1d- 1f 1b-
=||	=||
1A	1a 1cc 1ee
1d	1a 1dd 1ff#
=	=
1A	1a 1cc 1ee
1F#	1a# 1cc# 1ff#
=	=
1A	1a 1cc 1ee
1B	1f# 1b 1dd#
=||	=||
*-	*-
!!!system-decoration: {(s1,s2)}
!!!RDF**kern: > = above
!!!RDF**kern: < = below